packages/ffe-icons/icons/filled/sm/folder_shared.svg

<svg xmlns="http://www.w3.org/2000/svg" height="20" viewBox="0 -960 960 960" width="20"><path d="M180.309-212.001q-26.308 0-45.308-19t-19-45.308v-407.382q0-27.008 19-45.658 19-18.65 45.308-18.65h168.333q12.811 0 24.661 4.616 11.85 4.615 21.696 14.461l76.923 76.923h307.769q27.008 0 45.658 18.65 18.65 18.65 18.65 45.658v311.382q0 26.308-18.65 45.308t-45.658 19H180.309Zm313.538-89.846h260.306v-13.307q0-24-39.577-43.346Q675-377.846 623.5-377.846q-51.5 0-90.576 18.846-39.077 18.846-39.077 43.846v13.307Zm130.365-136.307q25.942 0 43.864-18.136 17.923-18.135 17.923-44.076t-18.135-43.864q-18.135-17.923-44.076-17.923-25.942 0-43.864 18.135-17.923 18.136-17.923 44.077t18.135 43.864q18.135 17.923 44.076 17.923Z"/></svg>

<svg xmlns="http://www.w3.org/2000/svg" height="20" viewBox="0 -960 960 960" width="20"><path d="M180.31-212Q154-212 135-231q-19-19-19-45.31v-407.38q0-27.01 19-45.66Q154-748 180.31-748h168.33q12.81 0 24.66 4.62 11.85 4.61 21.7 14.46L471.92-652h307.77q27.01 0 45.66 18.65Q844-614.7 844-587.69v311.38Q844-250 825.35-231q-18.65 19-45.66 19H180.31Zm313.54-89.85h260.3v-13.3q0-24-39.57-43.35-39.58-19.35-91.08-19.35T532.92-359q-39.07 18.85-39.07 43.85v13.3Zm130.36-136.3q25.94 0 43.87-18.14Q686-474.42 686-500.37q0-25.94-18.14-43.86-18.13-17.92-44.07-17.92t-43.87 18.13Q562-525.88 562-499.94q0 25.94 18.14 43.86 18.13 17.93 44.07 17.93Z"/></svg>
